flaticon/grooming/soap-1.svg

<svg xmlns="http://www.w3.org/2000/svg" width="32" height="32" viewBox="0 0 24 24">
    <path d="M21.699219 5.601562L20.898438 5.601562 20.898438 4 19.296875 4 19.296875 0 14.496094 0 14.496094.800781 9.699219.800781C7.9375.800781 6.335938 2 5.859375 3.679688 5.777344 4.039062 5.816406 4.398438 6.058594 4.71875 6.257812 5.039062 6.617188 5.199219 7.015625 5.199219 7.539062 5.199219 8.015625 4.839844 8.175781 4.320312 8.378906 3.640625 8.976562 3.199219 9.699219 3.199219L14.496094 3.199219 14.496094 4 12.898438 4 12.898438 5.601562 12.097656 5.601562C11.417969 5.601562 10.898438 6.121094 10.898438 6.800781L10.898438 22.800781C10.898438 23.480469 11.417969 24 12.097656 24L21.699219 24C22.378906 24 22.898438 23.480469 22.898438 22.800781L22.898438 6.800781C22.898438 6.121094 22.378906 5.601562 21.699219 5.601562zM9.699219 2.398438C8.65625 2.398438 7.738281 3.078125 7.417969 4.078125 7.335938 4.28125 7.175781 4.398438 7.015625 4.398438 6.898438 4.398438 6.777344 4.359375 6.699219 4.238281 6.617188 4.121094 6.578125 4 6.617188 3.878906 7.015625 2.558594 8.296875 1.601562 9.699219 1.601562L14.496094 1.601562 14.496094 2.398438zM15.296875 3.199219L15.296875.800781 18.496094.800781 18.496094 4 15.296875 4zM13.699219 4.800781L20.097656 4.800781 20.097656 5.601562 13.699219 5.601562zM11.699219 10.039062C14.378906 10.238281 16.496094 12.441406 16.496094 15.199219 16.496094 17.960938 14.378906 20.199219 11.699219 20.398438zM17.296875 15.199219C17.296875 12.972656 16.09375 11.035156 14.296875 10L22.097656 10 22.097656 20.398438 14.296875 20.398438C16.09375 19.363281 17.296875 17.425781 17.296875 15.199219zM17.699219 9.199219L16.097656 9.199219 16.097656 6.398438 17.699219 6.398438zM12.097656 6.398438L15.296875 6.398438 15.296875 9.199219 11.699219 9.199219 11.699219 6.800781C11.699219 6.558594 11.859375 6.398438 12.097656 6.398438zM22.097656 22.800781C22.097656 23.039062 21.9375 23.199219 21.699219 23.199219L12.097656 23.199219C11.859375 23.199219 11.699219 23.039062 11.699219 22.800781L11.699219 21.199219 22.097656 21.199219zM18.496094 9.199219L18.496094 6.398438 21.699219 6.398438C21.9375 6.398438 22.097656 6.558594 22.097656 6.800781L22.097656 9.199219zM4.378906 11.441406C5.015625 10.761719 5.097656 9.71875 4.539062 8.960938 4.136719 8.441406 3.699219 7.640625 3.777344 6.800781 3.816406 6.640625 3.738281 6.480469 3.578125 6.398438 3.417969 6.320312 3.257812 6.320312 3.136719 6.441406 3.058594 6.519531 1.417969 7.921875 1.136719 9.800781.976562 10.640625 1.378906 11.398438 2.136719 11.800781 2.417969 11.921875 2.738281 12 3.015625 12 3.496094 12 3.976562 11.800781 4.378906 11.441406zM1.9375 9.921875C2.058594 9.039062 2.617188 8.199219 3.058594 7.679688 3.175781 8.28125 3.457031 8.878906 3.898438 9.441406 4.257812 9.878906 4.21875 10.480469 3.816406 10.878906 3.417969 11.28125 2.898438 11.238281 2.539062 11.078125 2.175781 10.878906 1.859375 10.519531 1.9375 9.921875zM1.9375 9.921875"/>
    <path d="M8.578125 6.800781C8.617188 6.640625 8.539062 6.480469 8.378906 6.398438 8.257812 6.320312 8.058594 6.320312 7.9375 6.441406 7.855469 6.519531 6.21875 7.921875 5.9375 9.800781 5.777344 10.640625 6.175781 11.398438 6.9375 11.800781 7.21875 11.921875 7.539062 12 7.816406 12 8.296875 12 8.777344 11.800781 9.175781 11.441406 9.816406 10.761719 9.898438 9.71875 9.335938 8.960938 8.9375 8.441406 8.496094 7.640625 8.578125 6.800781zM8.617188 10.878906C8.21875 11.28125 7.699219 11.238281 7.335938 11.078125 6.976562 10.878906 6.65625 10.519531 6.738281 9.921875 6.859375 9.039062 7.417969 8.199219 7.859375 7.679688 7.976562 8.28125 8.257812 8.878906 8.699219 9.441406 9.058594 9.878906 9.015625 10.480469 8.617188 10.878906zM5.578125 12.800781C5.617188 12.640625 5.539062 12.480469 5.378906 12.398438 5.257812 12.320312 5.058594 12.320312 4.9375 12.441406 4.855469 12.519531 3.21875 13.921875 2.9375 15.800781 2.777344 16.640625 3.175781 17.398438 3.9375 17.800781 4.21875 17.921875 4.539062 18 4.816406 18 5.296875 18 5.777344 17.800781 6.175781 17.441406 6.816406 16.761719 6.898438 15.71875 6.335938 14.960938 5.9375 14.441406 5.496094 13.640625 5.578125 12.800781zM5.617188 16.878906C5.21875 17.28125 4.699219 17.238281 4.335938 17.078125 3.976562 16.878906 3.65625 16.519531 3.738281 15.921875 3.859375 15.039062 4.417969 14.199219 4.859375 13.679688 4.976562 14.28125 5.257812 14.878906 5.699219 15.441406 6.058594 15.878906 6.015625 16.480469 5.617188 16.878906zM5.617188 16.878906"/>
</svg>

<svg xmlns="http://www.w3.org/2000/svg" width="32" height="32" viewBox="0 0 24 24">
    <path d="M21.7 5.602h-.802V4h-1.601V0h-4.8v.8H9.698C7.938.8 6.336 2 5.86 3.68c-.082.36-.043.718.2 1.039.199.32.558.48.957.48.523 0 1-.36 1.16-.879.203-.68.8-1.12 1.523-1.12h4.797V4h-1.598v1.602h-.8c-.68 0-1.2.52-1.2 1.199v16c0 .68.52 1.199 1.2 1.199h9.601c.68 0 1.2-.52 1.2-1.2v-16c0-.679-.52-1.198-1.2-1.198zm-12-3.204a2.4 2.4 0 0 0-2.282 1.68c-.082.203-.242.32-.402.32a.357.357 0 0 1-.317-.16c-.082-.117-.12-.238-.082-.36.399-1.32 1.68-2.276 3.082-2.276h4.797v.796zm5.597.801V.801h3.2V4h-3.2zm-1.598 1.602h6.399v.8h-6.399zm-2 5.238a5.16 5.16 0 0 1 4.797 5.16c0 2.762-2.117 5-4.797 5.2zm5.598 5.16a5.984 5.984 0 0 0-3-5.199h7.8v10.398h-7.8a5.984 5.984 0 0 0 3-5.199zm.402-6h-1.601V6.4h1.601zm-5.601-2.8h3.199v2.8h-3.598V6.801c0-.242.16-.403.399-.403zm10 16.402c0 .238-.16.398-.399.398h-9.601c-.239 0-.399-.16-.399-.398v-1.602h10.399zM18.496 9.199V6.4H21.7c.238 0 .399.16.399.402v2.398zm0 0M4.379 11.441c.637-.68.719-1.722.16-2.48-.402-.52-.84-1.32-.762-2.16.04-.16-.039-.32-.199-.403-.16-.078-.32-.078-.441.043-.078.079-1.719 1.48-2 3.36-.16.84.242 1.597 1 2 .281.12.601.199.879.199.48 0 .96-.2 1.363-.559zm-2.441-1.52c.12-.882.68-1.722 1.12-2.241.118.601.399 1.199.84 1.761.36.438.32 1.04-.082 1.438-.398.402-.918.36-1.277.2-.363-.2-.68-.56-.602-1.157zm0 0"/>
    <path d="M8.578 6.8c.04-.16-.039-.32-.2-.402a.368.368 0 0 0-.44.043c-.083.079-1.72 1.48-2 3.36-.16.84.238 1.597 1 2 .28.12.601.199.878.199.48 0 .961-.2 1.36-.559.64-.68.722-1.722.16-2.48-.399-.52-.84-1.32-.758-2.16zm.04 4.079c-.4.402-.919.36-1.282.2-.36-.2-.68-.56-.598-1.157.121-.883.68-1.723 1.121-2.242.118.601.399 1.199.84 1.761.36.438.317 1.04-.082 1.438zm0 0M5.578 12.8c.04-.16-.039-.32-.2-.402a.368.368 0 0 0-.44.043c-.083.079-1.72 1.48-2 3.36-.16.84.238 1.597 1 2 .28.12.601.199.878.199.48 0 .961-.2 1.36-.559.64-.68.722-1.722.16-2.48-.399-.52-.84-1.32-.758-2.16zm.04 4.079c-.4.402-.919.36-1.282.2-.36-.2-.68-.56-.598-1.157.121-.883.68-1.723 1.121-2.242.118.601.399 1.199.84 1.761.36.438.317 1.04-.082 1.438zm0 0"/>
</svg>
